azure-patterns/svg-devops-extensible.svg

<svg xmlns="http://www.w3.org/2000/svg" viewBox="0 0 80 80">
                                
                            
    <rect width="80" height="80" fill="black" fill-opacity="0"></rect>
    <circle cx="40" cy="40" r="40" fill="#2560E0" fill-opacity="0.05"></circle>
    <path d="M49.4 37.6C49.0625 37.6 48.75 37.6625 48.4625 37.7875C48.175 37.9125 47.9188 38.0875 47.6938 38.3125C47.4813 38.525 47.3125 38.775 47.1875 39.0625C47.0625 39.35 47 39.6625 47 40C47 40.3375 47.0625 40.65 47.1875 40.9375C47.3125 41.225 47.4813 41.4813 47.6938 41.7062C47.9188 41.9188 48.175 42.0875 48.4625 42.2125C48.75 42.3375 49.0625 42.4 49.4 42.4H53V52H45.8V53.2C45.8 53.8625 45.675 54.4875 45.425 55.075C45.175 55.65 44.8312 56.1562 44.3937 56.5938C43.9562 57.0312 43.4438 57.375 42.8563 57.625C42.2812 57.875 41.6625 58 41 58C40.3375 58 39.7125 57.875 39.125 57.625C38.55 57.375 38.0437 57.0312 37.6062 56.5938C37.1687 56.1562 36.825 55.65 36.575 55.075C36.325 54.4875 36.2 53.8625 36.2 53.2V52H29V44.8H27.8C27.1375 44.8 26.5125 44.675 25.925 44.425C25.35 44.175 24.8438 43.8312 24.4062 43.3937C23.9688 42.9562 23.625 42.45 23.375 41.875C23.125 41.2875 23 40.6625 23 40C23 39.3375 23.125 38.7188 23.375 38.1437C23.625 37.5562 23.9688 37.0437 24.4062 36.6062C24.8438 36.1687 25.35 35.825 25.925 35.575C26.5125 35.325 27.1375 35.2 27.8 35.2H29V28H36.2V26.8C36.2 26.1375 36.325 25.5187 36.575 24.9437C36.825 24.3563 37.1687 23.8438 37.6062 23.4062C38.0437 22.9688 38.55 22.625 39.125 22.375C39.7125 22.125 40.3375 22 41 22C41.6625 22 42.2812 22.125 42.8563 22.375C43.4438 22.625 43.9562 22.9688 44.3937 23.4062C44.8312 23.8438 45.175 24.3563 45.425 24.9437C45.675 25.5187 45.8 26.1375 45.8 26.8V28H53V37.6H49.4ZM49.4 44.8C48.7375 44.8 48.1125 44.675 47.525 44.425C46.95 44.175 46.4438 43.8312 46.0063 43.3937C45.5688 42.9562 45.225 42.45 44.975 41.875C44.725 41.2875 44.6 40.6625 44.6 40C44.6 39.3375 44.725 38.7188 44.975 38.1437C45.225 37.5562 45.5688 37.0437 46.0063 36.6062C46.4438 36.1687 46.95 35.825 47.525 35.575C48.1125 35.325 48.7375 35.2 49.4 35.2H50.6V30.4H43.4V26.8C43.4 26.4625 43.3375 26.15 43.2125 25.8625C43.0875 25.575 42.9125 25.325 42.6875 25.1125C42.475 24.8875 42.225 24.7125 41.9375 24.5875C41.65 24.4625 41.3375 24.4 41 24.4C40.6625 24.4 40.35 24.4625 40.0625 24.5875C39.775 24.7125 39.5187 24.8875 39.2938 25.1125C39.0812 25.325 38.9125 25.575 38.7875 25.8625C38.6625 26.15 38.6 26.4625 38.6 26.8V30.4H31.4V37.6H27.8C27.4625 37.6 27.15 37.6625 26.8625 37.7875C26.575 37.9125 26.3187 38.0875 26.0938 38.3125C25.8812 38.525 25.7125 38.775 25.5875 39.0625C25.4625 39.35 25.4 39.6625 25.4 40C25.4 40.3375 25.4625 40.65 25.5875 40.9375C25.7125 41.225 25.8812 41.4813 26.0938 41.7062C26.3187 41.9188 26.575 42.0875 26.8625 42.2125C27.15 42.3375 27.4625 42.4 27.8 42.4H31.4V49.6H38.6V53.2C38.6 53.5375 38.6625 53.85 38.7875 54.1375C38.9125 54.425 39.0812 54.6813 39.2938 54.9062C39.5187 55.1188 39.775 55.2875 40.0625 55.4125C40.35 55.5375 40.6625 55.6 41 55.6C41.3375 55.6 41.65 55.5375 41.9375 55.4125C42.225 55.2875 42.475 55.1188 42.6875 54.9062C42.9125 54.6813 43.0875 54.425 43.2125 54.1375C43.3375 53.85 43.4 53.5375 43.4 53.2V49.6H50.6V44.8H49.4Z" fill="#2560E0"></path>
</svg>

<svg xmlns="http://www.w3.org/2000/svg" viewBox="0 0 80 80"><path fill="none" d="M0 0h80v80H0z"/><circle cx="40" cy="40" r="40" fill="#2560E0" fill-opacity=".05"/><path d="M49.4 37.6c-.337 0-.65.063-.938.188-.287.125-.543.3-.768.525a2.405 2.405 0 0 0-.507.75c-.124.287-.187.6-.187.937 0 .337.063.65.188.938.124.287.293.543.506.768.225.213.481.381.768.506.288.125.6.188.938.188H53V52h-7.2v1.2c0 .662-.125 1.287-.375 1.875a4.82 4.82 0 0 1-2.569 2.55A4.605 4.605 0 0 1 41 58a4.738 4.738 0 0 1-1.875-.375 4.88 4.88 0 0 1-2.55-2.55A4.738 4.738 0 0 1 36.2 53.2V52H29v-7.2h-1.2a4.738 4.738 0 0 1-1.875-.375 4.88 4.88 0 0 1-2.55-2.55A4.738 4.738 0 0 1 23 40c0-.663.125-1.281.375-1.856a4.82 4.82 0 0 1 2.55-2.569A4.738 4.738 0 0 1 27.8 35.2H29V28h7.2v-1.2c0-.663.125-1.281.375-1.856a4.821 4.821 0 0 1 2.55-2.569A4.738 4.738 0 0 1 41 22c.663 0 1.281.125 1.856.375.588.25 1.1.594 1.538 1.031.437.438.781.95 1.031 1.538.25.575.375 1.194.375 1.856V28H53v9.6h-3.6zm0 7.2a4.738 4.738 0 0 1-1.875-.375 4.878 4.878 0 0 1-2.55-2.55A4.738 4.738 0 0 1 44.6 40c0-.663.125-1.281.375-1.856a4.82 4.82 0 0 1 1.031-1.538 4.878 4.878 0 0 1 1.519-1.031A4.738 4.738 0 0 1 49.4 35.2h1.2v-4.8h-7.2v-3.6c0-.338-.063-.65-.188-.938a2.26 2.26 0 0 0-.525-.75 2.26 2.26 0 0 0-.75-.524A2.326 2.326 0 0 0 41 24.4c-.337 0-.65.063-.938.188-.287.124-.543.3-.768.524a2.404 2.404 0 0 0-.506.75c-.125.288-.188.6-.188.938v3.6h-7.2v7.2h-3.6c-.338 0-.65.063-.938.188-.287.125-.543.3-.768.525a2.404 2.404 0 0 0-.507.75c-.125.287-.187.6-.187.937 0 .337.063.65.188.938.124.287.293.543.506.768.225.213.481.381.768.506.288.125.6.188.938.188h3.6v7.2h7.2v3.6c0 .337.063.65.188.938.125.287.293.543.506.768.225.213.481.382.769.507.287.125.6.187.937.187.337 0 .65-.063.938-.188.287-.124.537-.293.75-.506.224-.225.4-.481.524-.768.125-.288.188-.6.188-.938v-3.6h7.2v-4.8h-1.2z" fill="#2560E0"/></svg>
